!!!OTL: SO MANCHER STEIGT HERUM
!!!ARE: Europa, Mitteleuropa, Deutschland
!!!SCT: B0674
!!!YEM: Copyright 1995, estate of Helmut Schaffrath.
**kern
*ICvox
*Ivox
*M2/4
*k[b-]
*F:
{8cc
=1
8.bn
16cc
8.dd
16cc
=2
4a
8r}
{8a
=3
8.g#
16a
8.b-
16a
=4
4f
8r}
{8f
=5
8e
8f
8g
8a
=6
8b-
4ee}
{8dd
=7
8cc
8b-
8a
8g
=8
4f
8r}
{8cc
=9
8dd
8cc
8a
8f
=10
4e
8r}
{8cc
=11
8dd
8cc
8b-
8g
=12
4f
8r}
{8cc
=13
8dd
8cc
8a
8f
=14
4e
8r}
{8cc
=15
12ee
12dd
12cc
12b-
12a
12g
=16
4f
8r}
{8cc
=17
4.cc
8e
=18
4f
8r
8cc
=19
4.cc
8e
=20
4f
8r}
==
!!!AGN: Moral - Lied, Vergaenglichkeit, Tod
!!!ONB: ESAC (Essen Associative Code) Database: BOEHME
!!!AMT: simple duple
!!!AIN: vox
!!!EED: Helmut Schaffrath
!!!EEV: 1.0
*-
